img/Dorra-logo.svg

<svg width="99" height="26" viewBox="0 0 99 26" fill="none" xmlns="http://www.w3.org/2000/svg">
<path d="M20.0469 5.10938C21.401 5.99479 22.4948 7.17708 23.3281 8.65625C24.1615 10.125 24.5781 11.9271 24.5781 14.0625C24.5781 15.9375 24.2031 17.5729 23.4531 18.9688C22.7135 20.3542 21.7292 21.4896 20.5 22.375C19.25 23.2604 17.8281 23.9219 16.2344 24.3594C14.651 24.7865 12.9896 25 11.25 25H0.078125V23.7812C0.411458 23.7708 0.828125 23.7396 1.32812 23.6875C1.82812 23.6354 2.16146 23.5729 2.32812 23.5C2.70312 23.3438 2.96354 23.1354 3.10938 22.875C3.25521 22.6042 3.32812 22.2812 3.32812 21.9062V6.1875C3.32812 5.83333 3.26042 5.51562 3.125 5.23438C2.98958 4.94271 2.72396 4.70833 2.32812 4.53125C1.93229 4.35417 1.51042 4.23438 1.0625 4.17188C0.625 4.10938 0.286458 4.06771 0.046875 4.04688V2.82812H11.8438C13.1042 2.82812 14.4531 2.98958 15.8906 3.3125C17.3281 3.63542 18.7135 4.23438 20.0469 5.10938ZM16.8594 21C17.3698 20.1667 17.7396 19.1771 17.9688 18.0312C18.2083 16.875 18.3281 15.5469 18.3281 14.0469C18.3281 12.5781 18.1719 11.2396 17.8594 10.0312C17.5469 8.82292 17.0885 7.79167 16.4844 6.9375C15.8802 6.08333 15.125 5.42188 14.2188 4.95312C13.3229 4.48438 12.3021 4.25 11.1562 4.25C10.7917 4.25 10.375 4.26042 9.90625 4.28125C9.44792 4.29167 9.10417 4.30208 8.875 4.3125V21.1406C8.875 21.5156 8.92188 21.849 9.01562 22.1406C9.11979 22.4219 9.29167 22.6719 9.53125 22.8906C9.77083 23.1094 10.0625 23.2812 10.4062 23.4062C10.7604 23.5208 11.2188 23.5781 11.7812 23.5781C12.9583 23.5781 13.9688 23.3594 14.8125 22.9219C15.6562 22.4844 16.3385 21.8438 16.8594 21ZM42.5469 11.3438C43.3177 12.0625 43.9062 12.9219 44.3125 13.9219C44.7188 14.9219 44.9219 16.0052 44.9219 17.1719C44.9219 18.3281 44.7188 19.4219 44.3125 20.4531C43.9167 21.474 43.3333 22.349 42.5625 23.0781C41.7396 23.8594 40.7552 24.4583 39.6094 24.875C38.474 25.2917 37.1719 25.5 35.7031 25.5C34.4323 25.5 33.2604 25.3177 32.1875 24.9531C31.125 24.5885 30.1823 24.0417 29.3594 23.3125C28.5677 22.6146 27.9427 21.7552 27.4844 20.7344C27.026 19.7031 26.7969 18.5521 26.7969 17.2812C26.7969 16.0312 26.9948 14.9219 27.3906 13.9531C27.7969 12.974 28.401 12.1042 29.2031 11.3438C29.974 10.6146 30.9219 10.0521 32.0469 9.65625C33.1823 9.25 34.4479 9.04688 35.8438 9.04688C37.3021 9.04688 38.5833 9.25 39.6875 9.65625C40.8021 10.0521 41.7552 10.6146 42.5469 11.3438ZM38.5469 22.1719C38.776 21.5885 38.9427 20.8802 39.0469 20.0469C39.1615 19.2135 39.2188 18.2448 39.2188 17.1406C39.2188 16.4115 39.1667 15.5781 39.0625 14.6406C38.9583 13.7031 38.8021 12.9635 38.5938 12.4219C38.3438 11.7656 37.9948 11.25 37.5469 10.875C37.1094 10.5 36.5521 10.3125 35.875 10.3125C35.1354 10.3125 34.5417 10.5156 34.0938 10.9219C33.6562 11.3281 33.3177 11.8542 33.0781 12.5C32.8594 13.0938 32.7083 13.7917 32.625 14.5938C32.5417 15.3854 32.5 16.2135 32.5 17.0781C32.5 18.2135 32.5365 19.1562 32.6094 19.9062C32.6823 20.6458 32.8594 21.3906 33.1406 22.1406C33.3802 22.7865 33.724 23.2969 34.1719 23.6719C34.6198 24.0469 35.1875 24.2344 35.875 24.2344C36.5 24.2344 37.0365 24.0625 37.4844 23.7188C37.9323 23.3646 38.2865 22.849 38.5469 22.1719ZM62.5 12.3594C62.5 13.151 62.2552 13.849 61.7656 14.4531C61.276 15.0469 60.6302 15.3438 59.8281 15.3438C59.0677 15.3438 58.4219 15.151 57.8906 14.7656C57.3698 14.3802 57.1094 13.8125 57.1094 13.0625C57.1094 12.6979 57.1354 12.4167 57.1875 12.2188C57.2396 12.0104 57.2865 11.8177 57.3281 11.6406C56.849 11.6615 56.3438 11.8281 55.8125 12.1406C55.2812 12.4531 54.8125 12.8698 54.4062 13.3906V21.9688C54.4062 22.3333 54.4635 22.6354 54.5781 22.875C54.6927 23.1146 54.8854 23.3021 55.1562 23.4375C55.3854 23.5521 55.7552 23.651 56.2656 23.7344C56.7865 23.8073 57.1615 23.849 57.3906 23.8594V25H46.9375V23.8594C47.1979 23.8385 47.4583 23.8125 47.7188 23.7812C47.9896 23.7396 48.2188 23.6875 48.4062 23.625C48.7396 23.5104 48.9688 23.3333 49.0938 23.0938C49.2188 22.8542 49.2812 22.5417 49.2812 22.1562V13.0625C49.2812 12.6875 49.1927 12.3542 49.0156 12.0625C48.8385 11.7604 48.625 11.5208 48.375 11.3438C48.1875 11.2188 47.9479 11.1146 47.6562 11.0312C47.375 10.9479 47.0625 10.8906 46.7188 10.8594V9.71875L54.1719 9.3125L54.4062 9.54688V11.8125H54.4688C55.1875 10.9792 55.9479 10.3281 56.75 9.85938C57.5625 9.38021 58.4062 9.14062 59.2812 9.14062C60.25 9.14062 61.026 9.44271 61.6094 10.0469C62.2031 10.6406 62.5 11.4115 62.5 12.3594ZM79.1562 12.3594C79.1562 13.151 78.9115 13.849 78.4219 14.4531C77.9323 15.0469 77.2865 15.3438 76.4844 15.3438C75.724 15.3438 75.0781 15.151 74.5469 14.7656C74.026 14.3802 73.7656 13.8125 73.7656 13.0625C73.7656 12.6979 73.7917 12.4167 73.8438 12.2188C73.8958 12.0104 73.9427 11.8177 73.9844 11.6406C73.5052 11.6615 73 11.8281 72.4688 12.1406C71.9375 12.4531 71.4688 12.8698 71.0625 13.3906V21.9688C71.0625 22.3333 71.1198 22.6354 71.2344 22.875C71.349 23.1146 71.5417 23.3021 71.8125 23.4375C72.0417 23.5521 72.4115 23.651 72.9219 23.7344C73.4427 23.8073 73.8177 23.849 74.0469 23.8594V25H63.5938V23.8594C63.8542 23.8385 64.1146 23.8125 64.375 23.7812C64.6458 23.7396 64.875 23.6875 65.0625 23.625C65.3958 23.5104 65.625 23.3333 65.75 23.0938C65.875 22.8542 65.9375 22.5417 65.9375 22.1562V13.0625C65.9375 12.6875 65.849 12.3542 65.6719 12.0625C65.4948 11.7604 65.2812 11.5208 65.0312 11.3438C64.8438 11.2188 64.6042 11.1146 64.3125 11.0312C64.0312 10.9479 63.7188 10.8906 63.375 10.8594V9.71875L70.8281 9.3125L71.0625 9.54688V11.8125H71.125C71.8438 10.9792 72.6042 10.3281 73.4062 9.85938C74.2188 9.38021 75.0625 9.14062 75.9375 9.14062C76.9062 9.14062 77.6823 9.44271 78.2656 10.0469C78.8594 10.6406 79.1562 11.4115 79.1562 12.3594ZM98.1094 24.6719C97.651 24.8698 97.1094 25.0521 96.4844 25.2188C95.8594 25.3854 95.1979 25.4688 94.5 25.4688C93.2188 25.4688 92.276 25.2812 91.6719 24.9062C91.0677 24.5208 90.6562 23.974 90.4375 23.2656H90.3438C89.9896 23.6198 89.6458 23.9219 89.3125 24.1719C88.9896 24.4219 88.6406 24.6354 88.2656 24.8125C87.776 25.0417 87.3021 25.2083 86.8438 25.3125C86.3958 25.4271 85.7656 25.4844 84.9531 25.4844C83.7448 25.4844 82.7135 25.1302 81.8594 24.4219C81.0052 23.7031 80.5781 22.7552 80.5781 21.5781C80.5781 20.901 80.6719 20.3281 80.8594 19.8594C81.0469 19.3802 81.3125 18.9583 81.6562 18.5938C81.9688 18.2604 82.3281 17.9844 82.7344 17.7656C83.151 17.5469 83.6042 17.3438 84.0938 17.1562C85.0312 16.8125 86.1562 16.4583 87.4688 16.0938C88.7812 15.7188 89.7396 15.3854 90.3438 15.0938V13.5938C90.3438 13.3333 90.3229 12.9896 90.2812 12.5625C90.2396 12.1354 90.151 11.776 90.0156 11.4844C89.8698 11.151 89.6406 10.8698 89.3281 10.6406C89.0156 10.4115 88.6042 10.2969 88.0938 10.2969C87.6354 10.2969 87.25 10.3646 86.9375 10.5C86.6354 10.625 86.3906 10.7552 86.2031 10.8906C86.2344 11.099 86.3229 11.4167 86.4688 11.8438C86.6146 12.2708 86.6875 12.6823 86.6875 13.0781C86.6875 13.2552 86.6406 13.4792 86.5469 13.75C86.4531 14.0104 86.3177 14.2188 86.1406 14.375C85.901 14.5833 85.6302 14.7448 85.3281 14.8594C85.0365 14.974 84.5833 15.0312 83.9688 15.0312C83.0938 15.0312 82.4323 14.8229 81.9844 14.4062C81.5365 13.9792 81.3125 13.4271 81.3125 12.75C81.3125 12.1667 81.5417 11.6458 82 11.1875C82.4688 10.7188 83.0365 10.3333 83.7031 10.0312C84.3594 9.71875 85.1146 9.47917 85.9688 9.3125C86.8229 9.13542 87.6146 9.04688 88.3438 9.04688C89.3542 9.04688 90.2812 9.10938 91.125 9.23438C91.9688 9.34896 92.7292 9.59375 93.4062 9.96875C94.0521 10.3333 94.5625 10.8646 94.9375 11.5625C95.3229 12.25 95.5156 13.151 95.5156 14.2656C95.5156 15.4427 95.4896 16.8385 95.4375 18.4531C95.3958 20.0677 95.375 21.1302 95.375 21.6406C95.375 22.1094 95.4427 22.4792 95.5781 22.75C95.724 23.0208 95.9427 23.224 96.2344 23.3594C96.4115 23.4427 96.6875 23.4948 97.0625 23.5156C97.4479 23.526 97.7969 23.5312 98.1094 23.5312V24.6719ZM90.3438 16.5312C89.7604 16.7292 89.1823 16.9583 88.6094 17.2188C88.0365 17.4688 87.5677 17.7344 87.2031 18.0156C86.8177 18.3073 86.5156 18.6823 86.2969 19.1406C86.0781 19.5885 85.9688 20.1198 85.9688 20.7344C85.9688 21.5469 86.151 22.1354 86.5156 22.5C86.8906 22.8646 87.349 23.0469 87.8906 23.0469C88.4635 23.0469 88.9323 22.9323 89.2969 22.7031C89.6719 22.4635 90 22.1719 90.2812 21.8281L90.3438 16.5312ZM93.1562 2.1875C93.1562 2.65625 93.0469 3.03646 92.8281 3.32812C92.6198 3.60938 92.2812 3.90104 91.8125 4.20312C91.3021 4.53646 90.4948 5.01042 89.3906 5.625C88.2865 6.22917 87.0365 6.95312 85.6406 7.79688L84.9844 7.20312C85.901 5.98438 86.6094 5.01562 87.1094 4.29688C87.6094 3.56771 88.0417 2.94792 88.4062 2.4375C88.8542 1.80208 89.2812 1.375 89.6875 1.15625C90.0938 0.927083 90.599 0.8125 91.2031 0.8125C91.7031 0.8125 92.151 0.947917 92.5469 1.21875C92.9531 1.48958 93.1562 1.8125 93.1562 2.1875Z" fill="#1E1A10"/>
</svg>

<svg width="99" height="26" fill="none" xmlns="http://www.w3.org/2000/svg"><path d="M20.047 5.11c1.354.885 2.448 2.067 3.281 3.546.834 1.469 1.25 3.271 1.25 5.406 0 1.876-.375 3.51-1.125 4.907-.74 1.385-1.724 2.52-2.953 3.406-1.25.885-2.672 1.547-4.266 1.984A19.06 19.06 0 0111.25 25H.078v-1.219c.333-.01.75-.041 1.25-.093.5-.053.833-.115 1-.188.375-.156.636-.365.781-.625.146-.27.22-.594.22-.969V6.188a2.17 2.17 0 00-.204-.954c-.135-.291-.401-.526-.797-.703a4.659 4.659 0 00-1.265-.36 19.875 19.875 0 00-1.016-.124V2.828h11.797c1.26 0 2.61.162 4.047.485 1.437.322 2.822.921 4.156 1.796zM16.859 21c.51-.833.88-1.823 1.11-2.969.24-1.156.36-2.484.36-3.984 0-1.469-.157-2.807-.47-4.016-.312-1.208-.77-2.24-1.375-3.094a6.276 6.276 0 00-2.265-1.984c-.896-.469-1.917-.703-3.063-.703-.364 0-.781.01-1.25.031-.458.01-.802.021-1.031.032V21.14c0 .375.047.708.14 1 .105.28.277.53.516.75.24.218.531.39.875.515.354.115.813.172 1.375.172 1.177 0 2.188-.219 3.031-.656A5.178 5.178 0 0016.86 21zm25.688-9.656a7.166 7.166 0 011.766 2.578c.406 1 .609 2.083.609 3.25a8.87 8.87 0 01-.61 3.281 7.09 7.09 0 01-1.75 2.625c-.822.781-1.807 1.38-2.953 1.797-1.135.417-2.437.625-3.906.625-1.27 0-2.443-.182-3.516-.547a8.261 8.261 0 01-2.828-1.64 7.456 7.456 0 01-1.875-2.579c-.458-1.03-.687-2.182-.687-3.453 0-1.25.198-2.36.594-3.328a7.563 7.563 0 011.812-2.61c.771-.728 1.719-1.29 2.844-1.687 1.135-.406 2.4-.61 3.797-.61 1.458 0 2.74.204 3.843.61 1.115.396 2.068.959 2.86 1.688zm-4 10.828c.229-.584.396-1.292.5-2.125.114-.834.172-1.802.172-2.906 0-.73-.052-1.563-.157-2.5-.104-.938-.26-1.678-.468-2.22-.25-.655-.6-1.171-1.047-1.546-.438-.375-.995-.563-1.672-.563-.74 0-1.333.204-1.781.61-.438.406-.776.932-1.016 1.578-.219.594-.37 1.292-.453 2.094a23.75 23.75 0 00-.125 2.484c0 1.136.036 2.078.11 2.828.072.74.25 1.485.53 2.235.24.646.584 1.156 1.032 1.53.448.376 1.016.563 1.703.563.625 0 1.161-.172 1.61-.515.447-.354.801-.87 1.062-1.547zM62.5 12.359a3.23 3.23 0 01-.734 2.094c-.49.594-1.136.89-1.938.89-.76 0-1.406-.192-1.937-.577-.521-.386-.782-.954-.782-1.704 0-.364.026-.645.078-.843.053-.209.1-.401.141-.578-.479.02-.984.187-1.516.5-.53.312-1 .729-1.406 1.25v8.578c0 .364.058.666.172.906.115.24.307.427.578.563.23.114.6.213 1.11.296.52.073.895.115 1.125.125V25H46.938v-1.14c.26-.021.52-.047.78-.079.272-.041.5-.093.688-.156.334-.115.563-.292.688-.531.125-.24.187-.552.187-.938v-9.093c0-.376-.088-.709-.265-1a2.268 2.268 0 00-.641-.72 2.57 2.57 0 00-.719-.312 4.847 4.847 0 00-.937-.172V9.72l7.453-.406.234.234v2.265h.063c.718-.833 1.479-1.484 2.281-1.953.813-.479 1.656-.718 2.531-.718.969 0 1.745.302 2.328.906.594.594.891 1.364.891 2.312zm16.656 0a3.23 3.23 0 01-.734 2.094c-.49.594-1.135.89-1.938.89-.76 0-1.406-.192-1.937-.577-.521-.386-.781-.954-.781-1.704 0-.364.026-.645.078-.843.052-.209.099-.401.14-.578-.479.02-.984.187-1.515.5-.531.312-1 .729-1.406 1.25v8.578c0 .364.057.666.171.906.115.24.308.427.579.563.229.114.599.213 1.109.296.52.073.896.115 1.125.125V25H63.594v-1.14c.26-.021.52-.047.781-.079.27-.041.5-.093.688-.156.333-.115.562-.292.687-.531.125-.24.188-.552.188-.938v-9.093c0-.376-.089-.709-.266-1a2.268 2.268 0 00-.64-.72 2.568 2.568 0 00-.72-.312 4.848 4.848 0 00-.937-.172V9.72l7.453-.406.234.234v2.265h.063c.719-.833 1.48-1.484 2.281-1.953.813-.479 1.656-.718 2.531-.718.97 0 1.745.302 2.329.906.593.594.89 1.364.89 2.312zM98.11 24.672c-.458.198-1 .38-1.625.547a7.676 7.676 0 01-1.984.25c-1.281 0-2.224-.188-2.828-.563a2.892 2.892 0 01-1.234-1.64h-.094a9.737 9.737 0 01-1.031.906c-.323.25-.672.463-1.047.64-.49.23-.964.396-1.422.5-.448.115-1.078.172-1.89.172-1.21 0-2.24-.354-3.095-1.062-.854-.719-1.28-1.667-1.28-2.844 0-.677.093-1.25.28-1.719.188-.479.454-.9.797-1.265.313-.334.672-.61 1.078-.828.417-.22.87-.422 1.36-.61a44.71 44.71 0 013.375-1.062c1.312-.375 2.27-.709 2.875-1v-1.5c0-.26-.021-.604-.063-1.031-.041-.428-.13-.787-.265-1.079a2.06 2.06 0 00-.688-.843c-.312-.23-.724-.344-1.234-.344-.459 0-.844.068-1.156.203a3.646 3.646 0 00-.735.39c.031.209.12.527.266.954.146.427.219.838.219 1.234 0 .177-.047.401-.141.672-.094.26-.23.469-.406.625-.24.208-.51.37-.813.484-.291.115-.745.172-1.36.172-.874 0-1.536-.208-1.984-.625-.447-.427-.671-.979-.671-1.656 0-.583.229-1.104.687-1.563a5.717 5.717 0 011.703-1.156c.656-.312 1.412-.552 2.266-.719a11.75 11.75 0 012.375-.265c1.01 0 1.937.062 2.781.187.844.115 1.604.36 2.281.735.646.364 1.156.896 1.531 1.594.386.687.579 1.588.579 2.703 0 1.177-.026 2.572-.079 4.187a157.606 157.606 0 00-.062 3.188c0 .468.068.838.203 1.109.146.27.365.474.656.61.178.083.454.135.829.156.385.01.734.015 1.046.015v1.14zm-7.765-8.14c-.584.197-1.162.426-1.735.687-.572.25-1.041.515-1.406.797a3.012 3.012 0 00-.906 1.125c-.219.448-.328.979-.328 1.593 0 .813.182 1.401.547 1.766.375.365.833.547 1.375.547.572 0 1.041-.115 1.406-.344a4.15 4.15 0 00.984-.875l.063-5.297zm2.812-14.345c0 .47-.11.85-.328 1.141-.208.281-.547.573-1.016.875-.51.333-1.317.807-2.421 1.422a102.066 102.066 0 00-3.75 2.172l-.657-.594a103.02 103.02 0 002.125-2.906c.5-.73.933-1.35 1.297-1.86.448-.635.875-1.062 1.281-1.28.407-.23.912-.345 1.516-.345.5 0 .948.136 1.344.407.406.27.61.593.61.968z" fill="#1E1A10"/></svg>
